src/epub/images/titlepage.svg

<?xml version="1.0" encoding="utf-8"?>
<svg xmlns="http://www.w3.org/2000/svg" xmlns:svg="http://www.w3.org/2000/svg" version="1.1" viewBox="0 0 1400 440">
	<title>The titlepage for the Standard Ebooks edition of The Insidious Dr. Fu-Manchu, by Sax Rohmer</title>
	<g>
		<path d="m 313.93201,68.245613 18.33918,0 0,61.754387 17.59065,0 0,-61.754387 18.33918,0 0,-15.438597 -54.26901,0 0,15.438597 z"/>
		<path d="m 397.12646,99.029239 24.88889,0 0,30.970761 17.59064,0 0,-77.192984 -17.59064,0 0,30.783626 -24.88889,0 0,-30.783626 -17.59065,0 0,77.192984 17.59065,0 0,-30.970761 z"/>
		<path d="m 499.97149,52.807016 -44.16374,0 0,77.192984 44.16374,0 0,-15.4386 -26.5731,0 0,-15.532161 25.45029,0 0,-15.438597 -25.45029,0 0,-15.345029 26.5731,0 0,-15.438597 z"/>
		<path d="m 563.25951,52.807016 -17.59065,0 0,77.192984 17.59065,0 0,-77.192984 z"/>
		<path d="m 597.13376,82.093566 0.18713,0 L 628.01095,130 l 17.59064,0 0,-77.192984 -17.59064,0 0,47.906434 -0.18713,0 -30.69006,-47.906434 -17.59065,0 0,77.192984 17.59065,0 0,-47.906434 z"/>
		<path d="m 688.46272,51.403507 c -12.44445,0 -25.16959,9.169591 -25.16959,23.578948 0,8.046784 5.4269,15.251462 14.69006,19.836258 9.16959,4.584795 17.4035,7.111107 17.4035,12.725147 0,7.20468 -7.29824,7.57895 -11.1345,7.57895 -8.60819,0 -18.90058,-8.70176 -18.90058,-8.70176 l -8.79533,14.78363 c 0,0 10.94737,10.19883 29.00585,10.19883 15.06433,0 29.09942,-6.45614 29.09942,-24.88889 0,-10.105264 -9.45029,-17.40351 -18.05848,-21.052632 -8.79532,-3.742691 -16.09357,-6.83041 -16.09357,-11.134504 0,-4.210526 3.18129,-6.923976 9.16959,-6.923976 7.95322,0 15.62573,5.333333 15.62573,5.333333 l 7.11111,-14.035088 c 0,0 -9.91812,-7.298246 -23.95321,-7.298246 z"/>
		<path d="m 745.47443,52.807016 -17.59065,0 0,77.192984 17.59065,0 0,-77.192984 z"/>
		<path d="m 761.75805,52.807016 0,77.192984 22.36257,0 c 21.23977,0 38.92398,-16.09357 38.92398,-38.643276 0,-22.45614 -17.77778,-38.549708 -38.92398,-38.549708 l -22.36257,0 z m 17.59064,61.473684 0,-45.754385 2.71345,0 c 13.09942,0 21.98831,10.011696 21.98831,22.923977 -0.0936,12.912278 -8.98246,22.830408 -21.98831,22.830408 l -2.71345,0 z"/>
		<path d="m 853.42764,52.807016 -17.59064,0 0,77.192984 17.59064,0 0,-77.192984 z"/>
		<path d="m 866.24928,91.356724 c 0,22.549706 16.09356,40.046786 38.92397,40.046786 22.17544,0 38.83041,-17.49708 38.83041,-40.046786 0,-22.549708 -17.4035,-39.953217 -38.83041,-39.953217 -21.23976,0 -38.92397,17.403509 -38.92397,39.953217 z m 18.99415,0 c 0,-11.508772 6.36257,-23.017544 19.92982,-23.017544 13.66082,0 19.83626,11.508772 19.83626,23.017544 0,11.508776 -5.80117,23.017546 -19.83626,23.017546 -14.40935,0 -19.92982,-11.50877 -19.92982,-23.017546 z"/>
		<path d="m 1016.087,52.807016 -17.59066,0 0,44.63158 c 0,12.912284 -3.92983,16.654974 -12.53801,16.654974 -8.60819,0 -12.53802,-3.74269 -12.53802,-16.654974 l 0,-44.63158 -17.59064,0 0,49.777774 c 0,19.08772 10.47953,28.81872 30.12866,28.81872 19.64907,0 30.12867,-9.731 30.12867,-28.81872 l 0,-49.777774 z"/>
		<path d="m 1058.0095,51.403507 c -12.4444,0 -25.1696,9.169591 -25.1696,23.578948 0,8.046784 5.4269,15.251462 14.6901,19.836258 9.1696,4.584795 17.4035,7.111107 17.4035,12.725147 0,7.20468 -7.2982,7.57895 -11.1345,7.57895 -8.6082,0 -18.9006,-8.70176 -18.9006,-8.70176 l -8.7953,14.78363 c 0,0 10.9474,10.19883 29.0058,10.19883 15.0644,0 29.0995,-6.45614 29.0995,-24.88889 0,-10.105264 -9.4503,-17.40351 -18.0585,-21.052632 -8.7953,-3.742691 -16.0936,-6.83041 -16.0936,-11.134504 0,-4.210526 3.1813,-6.923976 9.1696,-6.923976 7.9532,0 15.6257,5.333333 15.6257,5.333333 l 7.1111,-14.035088 c 0,0 -9.9181,-7.298246 -23.9532,-7.298246 z"/>
	</g>
	<g>
		<path d="m 272.6535,152.80702 0,77.19298 22.36258,0 c 21.23976,0 38.92397,-16.09357 38.92397,-38.64328 0,-22.45614 -17.77778,-38.5497 -38.92397,-38.5497 l -22.36258,0 z m 17.59065,61.47368 0,-45.75439 2.71345,0 c 13.09941,0 21.9883,10.0117 21.9883,22.92398 -0.0936,12.91228 -8.98246,22.83041 -21.9883,22.83041 l -2.71345,0 z"/>
		<path d="m 346.73245,152.80702 0,77.19298 17.59064,0 0,-30.50292 23.57895,30.50292 22.36258,0 -26.5731,-31.90643 c 9.45029,-2.99416 15.81286,-10.76024 15.81286,-22.36258 0,-15.15789 -10.8538,-22.92397 -25.16959,-22.92397 l -27.60234,0 z m 17.59064,34.24561 0,-20.21053 2.05848,0 c 6.64328,0 14.5965,0.46784 14.5965,10.10527 0,9.63742 -7.95322,10.10526 -14.5965,10.10526 l -2.05848,0 z"/>
		<path d="m 429.46784,209.97661 c -5.89473,0 -10.66666,4.77193 -10.66666,10.76023 0,5.89474 4.77193,10.66667 10.66666,10.66667 5.98831,0 10.76024,-4.77193 10.76024,-10.66667 0,-5.9883 -4.77193,-10.76023 -10.76024,-10.76023 z"/>
		<path d="m 531.72954,152.80702 -44.63158,0 0,77.19298 17.59064,0 0,-30.97076 24.98246,0 0,-15.4386 -24.98246,0 0,-15.34503 27.04094,0 0,-15.43859 z"/>
		<path d="m 604.41667,152.80702 -17.59065,0 0,44.63158 c 0,12.91228 -3.92982,16.65497 -12.53801,16.65497 -8.60818,0 -12.53801,-3.74269 -12.53801,-16.65497 l 0,-44.63158 -17.59064,0 0,49.77777 c 0,19.08772 10.47953,28.81872 30.12865,28.81872 19.64913,0 30.12866,-9.731 30.12866,-28.81872 l 0,-49.77777 z"/>
		<path d="m 619.72223,195.75439 0,14.31579 30.12865,0 0,-14.31579 -30.12865,0 z"/>
		<path d="m 729.83627,230 17.59065,0 -6.92398,-77.19298 -18.71345,0 -17.12281,44.53801 -17.12281,-44.53801 -18.71345,0 -6.92397,77.19298 17.59064,0 3.64912,-45.75439 0.46784,0 15.81286,45.28655 10.47954,0 15.81286,-45.28655 0.46784,0 L 729.83627,230 Z"/>
		<path d="m 798.67837,152.80702 -16.2807,0 -31.1579,77.19298 18.90059,0 5.7076,-15.4386 29.38012,0 5.7076,15.4386 18.90059,0 -31.1579,-77.19298 z m 0.5614,46.31579 -17.4035,0 8.60818,-22.45614 0.18714,0 8.60818,22.45614 z"/>
		<path d="m 855.3465,182.09357 0.18714,0 30.69005,47.90643 17.59065,0 0,-77.19298 -17.59065,0 0,47.90643 -0.18713,0 -30.69006,-47.90643 -17.59064,0 0,77.19298 17.59064,0 0,-47.90643 z"/>
		<path d="m 958.21054,214.09357 c -17.68421,0 -25.45029,-12.35088 -25.45029,-22.73685 0,-10.29239 7.76608,-22.64327 25.45029,-22.64327 8.98246,0 15.1579,4.77193 15.1579,4.77193 l 7.48538,-14.97076 c 0,0 -8.60819,-7.11111 -25.35673,-7.11111 -21.89473,0 -41.82456,17.96491 -41.82456,40.14035 0,22.08187 20.02339,39.85965 41.82456,39.85965 16.74854,0 25.35673,-7.11111 25.35673,-7.11111 l -7.48538,-14.97076 c 0,0 -6.17544,4.77193 -15.1579,4.77193 z"/>
		<path d="m 1010.2661,199.02924 24.8889,0 0,30.97076 17.5907,0 0,-77.19298 -17.5907,0 0,30.78362 -24.8889,0 0,-30.78362 -17.59063,0 0,77.19298 17.59063,0 0,-30.97076 z"/>
		<path d="m 1128.269,152.80702 -17.5906,0 0,44.63158 c 0,12.91228 -3.9298,16.65497 -12.538,16.65497 -8.6082,0 -12.538,-3.74269 -12.538,-16.65497 l 0,-44.63158 -17.5907,0 0,49.77777 c 0,19.08772 10.4795,28.81872 30.1287,28.81872 19.6491,0 30.1286,-9.731 30.1286,-28.81872 l 0,-49.77777 z"/>
	</g>
	<g>
		<path d="m 453.04386,331.05263 c -9.33333,0 -18.87719,6.8772 -18.87719,17.68421 0,6.03509 4.07017,11.4386 11.01754,14.8772 6.8772,3.43859 13.05263,5.33333 13.05263,9.54385 0,5.40351 -5.47368,5.68422 -8.35087,5.68422 -6.45614,0 -14.17544,-6.52632 -14.17544,-6.52632 l -6.59649,11.08772 c 0,0 8.21052,7.64912 21.75438,7.64912 11.29825,0 21.82456,-4.8421 21.82456,-18.66666 0,-7.57895 -7.08771,-13.05264 -13.54386,-15.78948 -6.59649,-2.80702 -12.07017,-5.12281 -12.07017,-8.35088 0,-3.15789 2.38596,-5.19298 6.87719,-5.19298 5.96491,0 11.7193,4 11.7193,4 l 5.33333,-10.52631 c 0,0 -7.43859,-5.47369 -17.96491,-5.47369 z"/>
		<path d="m 513.26316,332.10526 -12.21052,0 L 477.68421,390 l 14.17544,0 4.2807,-11.57895 22.03509,0 4.2807,11.57895 14.17544,0 -23.36842,-57.89474 z m 0.42105,34.73685 -13.05263,0 6.45614,-16.84211 0.14035,0 6.45614,16.84211 z"/>
		<path d="m 597.99672,390 -22.5965,-31.15789 18.94737,-26.73685 -16.42105,0 -10.66667,15.78948 -10.66666,-15.78948 -15.7193,0 18.24561,26.73685 L 537.22479,390 l 16.35087,0 13.68421,-19.7193 13.68421,19.7193 17.05264,0 z"/>
		<path d="m 629.06798,332.10526 0,57.89474 13.19298,0 0,-22.87719 17.68421,22.87719 16.77193,0 -19.92982,-23.92982 c 7.08772,-2.24562 11.85965,-8.07018 11.85965,-16.77193 0,-11.36842 -8.14035,-17.19299 -18.87719,-17.19299 l -20.70176,0 z m 13.19298,25.68421 0,-15.15789 1.54386,0 c 4.98246,0 10.94737,0.35088 10.94737,7.57895 0,7.22807 -5.96491,7.57894 -10.94737,7.57894 l -1.54386,0 z"/>
		<path d="m 681.77303,361.01754 c 0,16.91228 12.07018,30.03509 29.19299,30.03509 16.63158,0 29.1228,-13.12281 29.1228,-30.03509 0,-16.91228 -13.05263,-29.96491 -29.1228,-29.96491 -15.92983,0 -29.19299,13.05263 -29.19299,29.96491 z m 14.24562,0 c 0,-8.63157 4.77193,-17.26315 14.94737,-17.26315 10.24561,0 14.87719,8.63158 14.87719,17.26315 0,8.63158 -4.35088,17.26316 -14.87719,17.26316 -10.80702,0 -14.94737,-8.63158 -14.94737,-17.26316 z"/>
		<path d="m 764.10307,366.77193 18.66666,0 0,23.22807 13.19298,0 0,-57.89474 -13.19298,0 0,23.08772 -18.66666,0 0,-23.08772 -13.19299,0 0,57.89474 13.19299,0 0,-23.22807 z"/>
		<path d="m 857.22368,390 13.19298,0 -5.19298,-57.89474 -14.03509,0 -12.8421,33.40351 -12.84211,-33.40351 -14.03508,0 -5.19299,57.89474 13.19299,0 2.73684,-34.31579 0.35087,0 11.85965,33.96491 7.85965,0 11.85965,-33.96491 0.35088,0 L 857.22368,390 Z"/>
		<path d="m 913.82455,332.10526 -33.12281,0 0,57.89474 33.12281,0 0,-11.57895 -19.92983,0 0,-11.64912 19.08772,0 0,-11.57895 -19.08772,0 0,-11.50877 19.92983,0 0,-11.57895 z"/>
		<path d="m 926.40898,332.10526 0,57.89474 13.19299,0 0,-22.87719 17.68421,22.87719 16.77193,0 -19.92983,-23.92982 c 7.08772,-2.24562 11.85965,-8.07018 11.85965,-16.77193 0,-11.36842 -8.14035,-17.19299 -18.87719,-17.19299 l -20.70176,0 z m 13.19299,25.68421 0,-15.15789 1.54386,0 c 4.98245,0 10.94736,0.35088 10.94736,7.57895 0,7.22807 -5.96491,7.57894 -10.94736,7.57894 l -1.54386,0 z"/>
	</g>
</svg>

<?xml version="1.0" encoding="utf-8"?>
<svg xmlns="http://www.w3.org/2000/svg" xmlns:svg="http://www.w3.org/2000/svg" version="1.1" viewBox="0 0 1400 440">
	<title>The titlepage for the Standard Ebooks edition of The Insidious Dr. Fu-Manchu, by Sax Rohmer</title>
	<g aria-label="THE INSIDIOUS">
		<path d="m 313.93201,68.245613 h 18.33918 V 130 h 17.59065 V 68.245613 h 18.33918 V 52.807016 h -54.26901 z"/>
		<path d="m 397.12646,99.029239 h 24.88889 V 130 h 17.59064 V 52.807016 H 422.01535 V 83.590642 H 397.12646 V 52.807016 H 379.53581 V 130 h 17.59065 z"/>
		<path d="M 499.97149,52.807016 H 455.80775 V 130 h 44.16374 v -15.4386 h -26.5731 V 99.029239 h 25.45029 V 83.590642 H 473.39839 V 68.245613 h 26.5731 z"/>
		<path d="M 563.25951,52.807016 H 545.66886 V 130 h 17.59065 z"/>
		<path d="m 597.13376,82.093566 h 0.18713 L 628.01095,130 h 17.59064 V 52.807016 h -17.59064 v 47.906434 h -0.18713 L 597.13376,52.807016 H 579.54311 V 130 h 17.59065 z"/>
		<path d="m 688.46272,51.403507 c -12.44445,0 -25.16959,9.169591 -25.16959,23.578948 0,8.046784 5.4269,15.251462 14.69006,19.836258 9.16959,4.584795 17.4035,7.111107 17.4035,12.725147 0,7.20468 -7.29824,7.57895 -11.1345,7.57895 -8.60819,0 -18.90058,-8.70176 -18.90058,-8.70176 l -8.79533,14.78363 c 0,0 10.94737,10.19883 29.00585,10.19883 15.06433,0 29.09942,-6.45614 29.09942,-24.88889 0,-10.105264 -9.45029,-17.40351 -18.05848,-21.052632 -8.79532,-3.742691 -16.09357,-6.83041 -16.09357,-11.134504 0,-4.210526 3.18129,-6.923976 9.16959,-6.923976 7.95322,0 15.62573,5.333333 15.62573,5.333333 l 7.11111,-14.035088 c 0,0 -9.91812,-7.298246 -23.95321,-7.298246 z"/>
		<path d="M 745.47443,52.807016 H 727.88378 V 130 h 17.59065 z"/>
		<path d="M 761.75805,52.807016 V 130 h 22.36257 c 21.23977,0 38.92398,-16.09357 38.92398,-38.643276 0,-22.45614 -17.77778,-38.549708 -38.92398,-38.549708 z M 779.34869,114.2807 V 68.526315 h 2.71345 c 13.09942,0 21.98831,10.011696 21.98831,22.923977 -0.0936,12.912278 -8.98246,22.830408 -21.98831,22.830408 z"/>
		<path d="M 853.42764,52.807016 H 835.837 V 130 h 17.59064 z"/>
		<path d="m 866.24928,91.356724 c 0,22.549706 16.09356,40.046786 38.92397,40.046786 22.17544,0 38.83041,-17.49708 38.83041,-40.046786 0,-22.549708 -17.4035,-39.953217 -38.83041,-39.953217 -21.23976,0 -38.92397,17.403509 -38.92397,39.953217 z m 18.99415,0 c 0,-11.508772 6.36257,-23.017544 19.92982,-23.017544 13.66082,0 19.83626,11.508772 19.83626,23.017544 0,11.508776 -5.80117,23.017546 -19.83626,23.017546 -14.40935,0 -19.92982,-11.50877 -19.92982,-23.017546 z"/>
		<path d="m 1016.087,52.807016 h -17.59066 v 44.63158 c 0,12.912284 -3.92983,16.654974 -12.53801,16.654974 -8.60819,0 -12.53802,-3.74269 -12.53802,-16.654974 v -44.63158 h -17.59064 v 49.777774 c 0,19.08772 10.47953,28.81872 30.12866,28.81872 19.64907,0 30.12867,-9.731 30.12867,-28.81872 z"/>
		<path d="m 1058.0095,51.403507 c -12.4444,0 -25.1696,9.169591 -25.1696,23.578948 0,8.046784 5.4269,15.251462 14.6901,19.836258 9.1696,4.584795 17.4035,7.111107 17.4035,12.725147 0,7.20468 -7.2982,7.57895 -11.1345,7.57895 -8.6082,0 -18.9006,-8.70176 -18.9006,-8.70176 l -8.7953,14.78363 c 0,0 10.9474,10.19883 29.0058,10.19883 15.0644,0 29.0995,-6.45614 29.0995,-24.88889 0,-10.105264 -9.4503,-17.40351 -18.0585,-21.052632 -8.7953,-3.742691 -16.0936,-6.83041 -16.0936,-11.134504 0,-4.210526 3.1813,-6.923976 9.1696,-6.923976 7.9532,0 15.6257,5.333333 15.6257,5.333333 l 7.1111,-14.035088 c 0,0 -9.9181,-7.298246 -23.9532,-7.298246 z"/>
	</g>
	<g aria-label="DR. FU-MANCHU">
		<path d="M 272.6535,152.80702 V 230 h 22.36258 c 21.23976,0 38.92397,-16.09357 38.92397,-38.64328 0,-22.45614 -17.77778,-38.5497 -38.92397,-38.5497 z m 17.59065,61.47368 v -45.75439 h 2.71345 c 13.09941,0 21.9883,10.0117 21.9883,22.92398 -0.0936,12.91228 -8.98246,22.83041 -21.9883,22.83041 z"/>
		<path d="M 346.73245,152.80702 V 230 h 17.59064 V 199.49708 L 387.90204,230 h 22.36258 l -26.5731,-31.90643 c 9.45029,-2.99416 15.81286,-10.76024 15.81286,-22.36258 0,-15.15789 -10.8538,-22.92397 -25.16959,-22.92397 z m 17.59064,34.24561 V 166.8421 h 2.05848 c 6.64328,0 14.5965,0.46784 14.5965,10.10527 0,9.63742 -7.95322,10.10526 -14.5965,10.10526 z"/>
		<path d="m 429.46784,209.97661 c -5.89473,0 -10.66666,4.77193 -10.66666,10.76023 0,5.89474 4.77193,10.66667 10.66666,10.66667 5.98831,0 10.76024,-4.77193 10.76024,-10.66667 0,-5.9883 -4.77193,-10.76023 -10.76024,-10.76023 z"/>
		<path d="M 531.72954,152.80702 H 487.09796 V 230 h 17.59064 v -30.97076 h 24.98246 v -15.4386 H 504.6886 v -15.34503 h 27.04094 z"/>
		<path d="m 604.41667,152.80702 h -17.59065 v 44.63158 c 0,12.91228 -3.92982,16.65497 -12.53801,16.65497 -8.60818,0 -12.53801,-3.74269 -12.53801,-16.65497 v -44.63158 h -17.59064 v 49.77777 c 0,19.08772 10.47953,28.81872 30.12865,28.81872 19.64913,0 30.12866,-9.731 30.12866,-28.81872 z"/>
		<path d="m 619.72223,195.75439 v 14.31579 h 30.12865 v -14.31579 z"/>
		<path d="m 729.83627,230 h 17.59065 l -6.92398,-77.19298 h -18.71345 l -17.12281,44.53801 -17.12281,-44.53801 H 668.83042 L 661.90645,230 h 17.59064 l 3.64912,-45.75439 h 0.46784 l 15.81286,45.28655 h 10.47954 l 15.81286,-45.28655 h 0.46784 z"/>
		<path d="m 798.67837,152.80702 h -16.2807 L 751.23977,230 h 18.90059 l 5.7076,-15.4386 h 29.38012 L 810.93568,230 h 18.90059 z m 0.5614,46.31579 h -17.4035 l 8.60818,-22.45614 h 0.18714 z"/>
		<path d="m 855.3465,182.09357 h 0.18714 L 886.22369,230 h 17.59065 v -77.19298 h -17.59065 v 47.90643 h -0.18713 L 855.3465,152.80702 H 837.75586 V 230 h 17.59064 z"/>
		<path d="m 958.21054,214.09357 c -17.68421,0 -25.45029,-12.35088 -25.45029,-22.73685 0,-10.29239 7.76608,-22.64327 25.45029,-22.64327 8.98246,0 15.1579,4.77193 15.1579,4.77193 l 7.48538,-14.97076 c 0,0 -8.60819,-7.11111 -25.35673,-7.11111 -21.89473,0 -41.82456,17.96491 -41.82456,40.14035 0,22.08187 20.02339,39.85965 41.82456,39.85965 16.74854,0 25.35673,-7.11111 25.35673,-7.11111 l -7.48538,-14.97076 c 0,0 -6.17544,4.77193 -15.1579,4.77193 z"/>
		<path d="m 1010.2661,199.02924 h 24.8889 V 230 h 17.5907 v -77.19298 h -17.5907 v 30.78362 h -24.8889 V 152.80702 H 992.67547 V 230 h 17.59063 z"/>
		<path d="m 1128.269,152.80702 h -17.5906 v 44.63158 c 0,12.91228 -3.9298,16.65497 -12.538,16.65497 -8.6082,0 -12.538,-3.74269 -12.538,-16.65497 v -44.63158 h -17.5907 v 49.77777 c 0,19.08772 10.4795,28.81872 30.1287,28.81872 19.6491,0 30.1286,-9.731 30.1286,-28.81872 z"/>
	</g>
	<g aria-label="SAX ROHMER">
		<path d="m 453.04386,331.05263 c -9.33333,0 -18.87719,6.8772 -18.87719,17.68421 0,6.03509 4.07017,11.4386 11.01754,14.8772 6.8772,3.43859 13.05263,5.33333 13.05263,9.54385 0,5.40351 -5.47368,5.68422 -8.35087,5.68422 -6.45614,0 -14.17544,-6.52632 -14.17544,-6.52632 l -6.59649,11.08772 c 0,0 8.21052,7.64912 21.75438,7.64912 11.29825,0 21.82456,-4.8421 21.82456,-18.66666 0,-7.57895 -7.08771,-13.05264 -13.54386,-15.78948 -6.59649,-2.80702 -12.07017,-5.12281 -12.07017,-8.35088 0,-3.15789 2.38596,-5.19298 6.87719,-5.19298 5.96491,0 11.7193,4 11.7193,4 l 5.33333,-10.52631 c 0,0 -7.43859,-5.47369 -17.96491,-5.47369 z"/>
		<path d="M 513.26316,332.10526 H 501.05264 L 477.68421,390 h 14.17544 l 4.2807,-11.57895 h 22.03509 L 522.45614,390 h 14.17544 z m 0.42105,34.73685 H 500.63158 L 507.08772,350 h 0.14035 z"/>
		<path d="m 597.99672,390 -22.5965,-31.15789 18.94737,-26.73685 h -16.42105 l -10.66667,15.78948 -10.66666,-15.78948 h -15.7193 L 559.11952,358.84211 537.22479,390 h 16.35087 L 567.25987,370.2807 580.94408,390 Z"/>
		<path d="M 629.06798,332.10526 V 390 h 13.19298 V 367.12281 L 659.94517,390 h 16.77193 l -19.92982,-23.92982 c 7.08772,-2.24562 11.85965,-8.07018 11.85965,-16.77193 0,-11.36842 -8.14035,-17.19299 -18.87719,-17.19299 z m 13.19298,25.68421 v -15.15789 h 1.54386 c 4.98246,0 10.94737,0.35088 10.94737,7.57895 0,7.22807 -5.96491,7.57894 -10.94737,7.57894 z"/>
		<path d="m 681.77303,361.01754 c 0,16.91228 12.07018,30.03509 29.19299,30.03509 16.63158,0 29.1228,-13.12281 29.1228,-30.03509 0,-16.91228 -13.05263,-29.96491 -29.1228,-29.96491 -15.92983,0 -29.19299,13.05263 -29.19299,29.96491 z m 14.24562,0 c 0,-8.63157 4.77193,-17.26315 14.94737,-17.26315 10.24561,0 14.87719,8.63158 14.87719,17.26315 0,8.63158 -4.35088,17.26316 -14.87719,17.26316 -10.80702,0 -14.94737,-8.63158 -14.94737,-17.26316 z"/>
		<path d="m 764.10307,366.77193 h 18.66666 V 390 h 13.19298 v -57.89474 h -13.19298 v 23.08772 H 764.10307 V 332.10526 H 750.91008 V 390 h 13.19299 z"/>
		<path d="m 857.22368,390 h 13.19298 l -5.19298,-57.89474 h -14.03509 l -12.8421,33.40351 -12.84211,-33.40351 H 811.4693 L 806.27631,390 h 13.19299 l 2.73684,-34.31579 h 0.35087 l 11.85965,33.96491 h 7.85965 l 11.85965,-33.96491 h 0.35088 z"/>
		<path d="M 913.82455,332.10526 H 880.70174 V 390 h 33.12281 v -11.57895 h -19.92983 v -11.64912 h 19.08772 v -11.57895 h -19.08772 v -11.50877 h 19.92983 z"/>
		<path d="M 926.40898,332.10526 V 390 h 13.19299 V 367.12281 L 957.28618,390 h 16.77193 l -19.92983,-23.92982 c 7.08772,-2.24562 11.85965,-8.07018 11.85965,-16.77193 0,-11.36842 -8.14035,-17.19299 -18.87719,-17.19299 z m 13.19299,25.68421 v -15.15789 h 1.54386 c 4.98245,0 10.94736,0.35088 10.94736,7.57895 0,7.22807 -5.96491,7.57894 -10.94736,7.57894 z"/>
	</g>
</svg>
